dist/img/mail.svg

<svg width="20" height="15" viewBox="0 0 20 15" fill="none" xmlns="http://www.w3.org/2000/svg">
<path d="M13.2573 7.60266L19.9998 11.8652V3.16016L13.2573 7.60266Z" fill="#848484"/>
<path d="M0 3.16016V11.8652L6.7425 7.60266L0 3.16016Z" fill="#848484"/>
<path d="M18.7501 0.625H1.2501C0.626348 0.625 0.131348 1.09 0.0375977 1.68875L10.0001 8.2525L19.9626 1.68875C19.8688 1.09 19.3738 0.625 18.7501 0.625Z" fill="#848484"/>
<path d="M12.1125 8.35672L10.3438 9.52172C10.2388 9.59047 10.12 9.62422 10 9.62422C9.88004 9.62422 9.76129 9.59047 9.65629 9.52172L7.88754 8.35547L0.0400391 13.3192C0.136289 13.913 0.628789 14.3742 1.25004 14.3742H18.75C19.3713 14.3742 19.8638 13.913 19.96 13.3192L12.1125 8.35672Z" fill="#848484"/>
</svg>

<svg width="20" height="15" fill="none" xmlns="http://www.w3.org/2000/svg"><path d="M13.257 7.603L20 11.865V3.16l-6.743 4.443zM0 3.16v8.705l6.742-4.262L0 3.16zM18.75.625H1.25C.626.625.131 1.09.038 1.689L10 8.252l9.963-6.563c-.094-.599-.59-1.064-1.213-1.064zm-6.637 7.732l-1.77 1.165a.624.624 0 01-.687 0L7.888 8.355.04 13.32c.096.594.589 1.055 1.21 1.055h17.5c.621 0 1.114-.461 1.21-1.055l-7.848-4.962z" fill="#848484"/></svg>
